svg/color/che.svg

<?xml version="1.0" encoding="UTF-8" ?>
<!DOCTYPE svg PUBLIC "-//W3C//DTD SVG 1.1//EN" "http://www.w3.org/Graphics/SVG/1.1/DTD/svg11.dtd">
<svg width="250pt" height="242pt" viewBox="0 0 250 242" version="1.1" xmlns="http://www.w3.org/2000/svg">
<g id="#ffffffff">
<path fill="#ffffff" opacity="1.00" d=" M 0.00 0.00 L 250.00 0.00 L 250.00 242.00 L 0.00 242.00 L 0.00 0.00 M 111.36 12.34 C 94.82 14.28 78.51 19.48 64.43 28.46 C 54.52 34.91 45.05 42.36 37.76 51.76 C 23.61 68.23 14.96 89.08 12.44 110.59 C 9.82 133.13 13.88 156.50 24.33 176.67 C 34.83 196.56 51.24 213.43 71.30 223.73 C 90.30 233.79 112.18 238.33 133.62 236.50 C 157.56 234.61 181.03 225.05 199.02 209.05 C 209.80 199.95 218.30 188.36 224.98 176.00 C 235.54 155.19 239.48 131.10 236.13 108.01 C 231.11 68.03 202.29 32.21 164.38 18.62 C 147.51 12.38 129.21 10.50 111.36 12.34 Z" />
<path fill="#ffffff" opacity="1.00" d=" M 64.21 155.77 C 64.49 150.67 67.79 145.17 73.21 144.44 C 76.48 144.15 80.32 144.18 82.89 146.53 C 77.97 147.28 72.68 148.35 69.10 152.12 C 67.53 153.38 66.44 155.64 64.21 155.77 Z" />
</g>
<g id="#ffccd3ff">
<path fill="#ffccd3" opacity="1.00" d=" M 111.36 12.34 C 129.21 10.50 147.51 12.38 164.38 18.62 C 202.29 32.21 231.11 68.03 236.13 108.01 C 239.48 131.10 235.54 155.19 224.98 176.00 C 218.30 188.36 209.80 199.95 199.02 209.05 C 181.03 225.05 157.56 234.61 133.62 236.50 C 112.18 238.33 90.30 233.79 71.30 223.73 C 51.24 213.43 34.83 196.56 24.33 176.67 C 13.88 156.50 9.82 133.13 12.44 110.59 C 14.96 89.08 23.61 68.23 37.76 51.76 C 45.05 42.36 54.52 34.91 64.43 28.46 C 78.51 19.48 94.82 14.28 111.36 12.34 M 131.55 45.34 C 121.23 48.06 111.25 52.34 102.56 58.57 C 97.94 62.57 92.85 66.30 89.50 71.52 C 81.86 81.80 77.32 94.29 76.19 107.04 C 74.76 116.13 75.75 125.35 75.68 134.50 C 70.58 134.38 65.50 136.11 61.83 139.73 C 55.16 144.52 52.77 153.16 52.60 161.00 C 51.92 178.54 61.59 196.59 77.77 204.08 C 82.91 206.18 88.54 206.94 94.06 207.15 C 103.04 205.96 112.46 202.69 118.37 195.46 C 120.56 192.90 121.69 189.53 124.06 187.15 C 126.80 188.97 128.25 192.14 130.65 194.35 C 137.75 200.99 147.05 206.00 156.98 205.83 C 167.46 206.31 178.08 201.94 185.01 194.05 C 192.90 186.26 195.76 174.80 195.59 164.00 C 195.63 154.91 195.07 145.06 189.63 137.40 C 185.63 130.76 178.75 125.75 171.03 124.58 C 162.21 124.13 154.18 129.14 148.37 135.41 C 144.75 135.86 141.15 134.55 137.53 134.39 C 131.59 124.83 126.45 114.37 125.54 102.98 C 125.22 94.21 124.93 85.21 127.85 76.79 C 128.25 76.65 129.03 76.37 129.43 76.23 C 130.01 84.16 134.26 91.69 140.62 96.42 C 149.33 102.57 160.62 104.33 171.02 102.78 C 173.29 102.34 176.36 102.90 177.88 100.81 C 179.07 93.68 177.80 86.40 176.28 79.42 C 173.48 71.53 168.14 63.88 160.08 60.79 C 155.69 58.54 150.96 56.83 145.98 56.63 C 143.73 56.39 141.34 56.89 139.20 55.99 C 140.48 53.11 142.97 51.20 145.51 49.50 C 145.84 47.47 146.21 44.71 143.90 43.70 C 139.73 42.54 135.55 44.30 131.55 45.34 Z" />
<path fill="#ffccd3" opacity="1.00" d=" M 120.99 58.01 C 123.61 57.14 126.02 55.69 128.75 55.18 C 125.25 62.40 121.18 69.48 119.09 77.32 C 114.67 91.98 116.14 107.95 121.76 122.08 C 123.08 127.03 126.30 131.15 127.96 135.95 C 126.63 137.52 124.74 138.45 122.95 139.39 C 119.77 137.42 116.96 134.51 113.05 134.10 C 106.03 132.46 99.08 135.29 92.85 138.27 C 89.59 138.88 84.10 137.31 84.64 133.05 C 84.32 122.11 83.92 111.08 85.69 100.23 C 88.33 90.46 92.29 80.75 99.44 73.36 C 105.61 67.03 112.56 61.05 120.99 58.01 Z" />
<path fill="#ffccd3" opacity="1.00" d=" M 130.30 148.33 C 133.25 145.93 137.35 146.46 140.86 146.91 L 140.69 147.72 C 137.47 149.38 133.69 150.38 131.36 153.36 C 129.90 154.90 129.03 157.12 126.95 157.96 C 126.25 154.49 127.37 150.48 130.30 148.33 Z" />
</g>
<g id="#24040bff">
<path fill="#24040b" opacity="1.00" d=" M 131.55 45.34 C 135.55 44.30 139.73 42.54 143.90 43.70 C 146.21 44.71 145.84 47.47 145.51 49.50 C 142.97 51.20 140.48 53.11 139.20 55.99 C 141.34 56.89 143.73 56.39 145.98 56.63 C 150.96 56.83 155.69 58.54 160.08 60.79 C 168.14 63.88 173.48 71.53 176.28 79.42 C 177.80 86.40 179.07 93.68 177.88 100.81 C 176.36 102.90 173.29 102.34 171.02 102.78 C 160.62 104.33 149.33 102.57 140.62 96.42 C 134.26 91.69 130.01 84.16 129.43 76.23 C 129.03 76.37 128.25 76.65 127.85 76.79 C 124.93 85.21 125.22 94.21 125.54 102.98 C 126.45 114.37 131.59 124.83 137.53 134.39 C 141.15 134.55 144.75 135.86 148.37 135.41 C 154.18 129.14 162.21 124.13 171.03 124.58 C 178.75 125.75 185.63 130.76 189.63 137.40 C 195.07 145.06 195.63 154.91 195.59 164.00 C 195.76 174.80 192.90 186.26 185.01 194.05 C 178.08 201.94 167.46 206.31 156.98 205.83 C 147.05 206.00 137.75 200.99 130.65 194.35 C 128.25 192.14 126.80 188.97 124.06 187.15 C 121.69 189.53 120.56 192.90 118.37 195.46 C 112.46 202.69 103.04 205.96 94.06 207.15 C 88.54 206.94 82.91 206.18 77.77 204.08 C 61.59 196.59 51.92 178.54 52.60 161.00 C 52.77 153.16 55.16 144.52 61.83 139.73 C 65.50 136.11 70.58 134.38 75.68 134.50 C 75.75 125.35 74.76 116.13 76.19 107.04 C 77.32 94.29 81.86 81.80 89.50 71.52 C 92.85 66.30 97.94 62.57 102.56 58.57 C 111.25 52.34 121.23 48.06 131.55 45.34 M 120.99 58.01 C 112.56 61.05 105.61 67.03 99.44 73.36 C 92.29 80.75 88.33 90.46 85.69 100.23 C 83.92 111.08 84.32 122.11 84.64 133.05 C 84.10 137.31 89.59 138.88 92.85 138.27 C 99.08 135.29 106.03 132.46 113.05 134.10 C 116.96 134.51 119.77 137.42 122.95 139.39 C 124.74 138.45 126.63 137.52 127.96 135.95 C 126.30 131.15 123.08 127.03 121.76 122.08 C 116.14 107.95 114.67 91.98 119.09 77.32 C 121.18 69.48 125.25 62.40 128.75 55.18 C 126.02 55.69 123.61 57.14 120.99 58.01 M 145.22 63.28 C 145.91 65.77 148.35 67.16 150.03 68.95 C 153.82 72.10 156.80 76.28 158.24 81.01 C 158.75 83.35 155.30 85.41 153.68 83.37 C 151.39 80.55 150.39 76.85 147.75 74.27 C 144.31 70.73 140.63 67.11 136.04 65.13 C 134.88 74.60 137.73 85.40 145.75 91.24 C 152.92 96.32 162.26 96.67 170.68 95.66 C 171.33 88.70 170.08 81.50 166.50 75.44 C 161.74 68.39 153.53 64.30 145.22 63.28 M 160.84 134.87 C 159.55 135.92 157.13 136.64 157.31 138.66 C 159.55 140.23 163.77 140.61 163.71 144.10 C 164.19 146.57 161.44 148.40 159.20 147.68 C 152.53 145.73 146.18 141.79 139.00 142.32 C 131.85 141.61 124.22 146.17 122.59 153.42 C 121.44 162.16 123.39 171.31 128.39 178.62 L 129.13 178.80 C 129.64 182.80 133.13 185.48 135.60 188.39 C 143.32 197.52 156.75 200.61 167.98 196.90 C 173.79 194.17 179.40 190.34 182.70 184.68 C 188.63 175.31 189.43 163.48 187.28 152.85 C 187.02 150.36 186.72 147.79 185.48 145.58 C 183.28 141.64 181.40 137.12 177.29 134.80 C 172.63 131.08 165.57 131.48 160.84 134.87 M 102.54 141.53 C 101.26 142.09 99.17 142.30 98.91 143.98 C 100.36 146.01 103.69 147.04 103.43 149.96 C 103.65 152.37 100.36 154.21 98.46 152.59 C 94.38 149.72 90.64 146.33 86.24 143.95 C 80.51 141.47 73.26 140.01 67.73 143.75 C 61.87 147.25 59.46 154.48 59.56 161.01 C 59.44 167.48 59.99 174.82 63.98 180.06 C 64.15 181.11 64.45 182.12 64.90 183.08 C 69.47 191.52 77.75 198.10 87.35 199.62 C 101.09 202.89 115.24 192.95 119.37 179.97 C 119.21 176.46 117.32 173.26 116.27 169.95 C 115.69 164.96 114.04 160.01 114.79 154.94 C 115.06 151.48 116.59 148.35 117.68 145.11 C 114.44 140.20 107.67 139.75 102.54 141.53 Z" />
</g>
<g id="#39b464ff">
<path fill="#39b464" opacity="1.00" d=" M 145.22 63.28 C 153.53 64.30 161.74 68.39 166.50 75.44 C 170.08 81.50 171.33 88.70 170.68 95.66 C 162.26 96.67 152.92 96.32 145.75 91.24 C 137.73 85.40 134.88 74.60 136.04 65.13 C 140.63 67.11 144.31 70.73 147.75 74.27 C 150.39 76.85 151.39 80.55 153.68 83.37 C 155.30 85.41 158.75 83.35 158.24 81.01 C 156.80 76.28 153.82 72.10 150.03 68.95 C 148.35 67.16 145.91 65.77 145.22 63.28 Z" />
</g>
<g id="#e55167ff">
<path fill="#e55167" opacity="1.00" d=" M 160.84 134.87 C 165.57 131.48 172.63 131.08 177.29 134.80 C 181.40 137.12 183.28 141.64 185.48 145.58 C 186.72 147.79 187.02 150.36 187.28 152.85 C 187.30 155.84 187.59 158.87 187.05 161.84 C 185.14 165.24 181.70 167.36 178.72 169.73 C 168.08 177.73 154.54 181.97 141.23 180.61 C 137.20 180.00 133.21 179.06 129.13 178.80 L 128.39 178.62 C 123.39 171.31 121.44 162.16 122.59 153.42 C 124.22 146.17 131.85 141.61 139.00 142.32 C 146.18 141.79 152.53 145.73 159.20 147.68 C 161.44 148.40 164.19 146.57 163.71 144.10 C 163.77 140.61 159.55 140.23 157.31 138.66 C 157.13 136.64 159.55 135.92 160.84 134.87 M 130.30 148.33 C 127.37 150.48 126.25 154.49 126.95 157.96 C 129.03 157.12 129.90 154.90 131.36 153.36 C 133.69 150.38 137.47 149.38 140.69 147.72 L 140.86 146.91 C 137.35 146.46 133.25 145.93 130.30 148.33 Z" />
<path fill="#e55167" opacity="1.00" d=" M 102.54 141.53 C 107.67 139.75 114.44 140.20 117.68 145.11 C 116.59 148.35 115.06 151.48 114.79 154.94 C 114.04 160.01 115.69 164.96 116.27 169.95 C 113.75 173.36 109.89 175.23 106.31 177.30 C 96.98 182.48 85.89 184.03 75.38 182.51 C 71.55 181.86 67.78 180.87 63.98 180.06 C 59.99 174.82 59.44 167.48 59.56 161.01 C 59.46 154.48 61.87 147.25 67.73 143.75 C 73.26 140.01 80.51 141.47 86.24 143.95 C 90.64 146.33 94.38 149.72 98.46 152.59 C 100.36 154.21 103.65 152.37 103.43 149.96 C 103.69 147.04 100.36 146.01 98.91 143.98 C 99.17 142.30 101.26 142.09 102.54 141.53 M 64.21 155.77 C 66.44 155.64 67.53 153.38 69.10 152.12 C 72.68 148.35 77.97 147.28 82.89 146.53 C 80.32 144.18 76.48 144.15 73.21 144.44 C 67.79 145.17 64.49 150.67 64.21 155.77 Z" />
</g>
<g id="#da364eff">
<path fill="#da364e" opacity="1.00" d=" M 187.28 152.85 C 189.43 163.48 188.63 175.31 182.70 184.68 C 179.40 190.34 173.79 194.17 167.98 196.90 C 156.75 200.61 143.32 197.52 135.60 188.39 C 133.13 185.48 129.64 182.80 129.13 178.80 C 133.21 179.06 137.20 180.00 141.23 180.61 C 154.54 181.97 168.08 177.73 178.72 169.73 C 181.70 167.36 185.14 165.24 187.05 161.84 C 187.59 158.87 187.30 155.84 187.28 152.85 Z" />
<path fill="#da364e" opacity="1.00" d=" M 116.27 169.95 C 117.32 173.26 119.21 176.46 119.37 179.97 C 115.24 192.95 101.09 202.89 87.35 199.62 C 77.75 198.10 69.47 191.52 64.90 183.08 C 64.45 182.12 64.15 181.11 63.98 180.06 C 67.78 180.87 71.55 181.86 75.38 182.51 C 85.89 184.03 96.98 182.48 106.31 177.30 C 109.89 175.23 113.75 173.36 116.27 169.95 Z" />
</g>
</svg>

<?xml version="1.0" encoding="utf-8"?>
<!-- Generator: Adobe Illustrator 26.0.3, SVG Export Plug-In . SVG Version: 6.00 Build 0)  -->
<svg version="1.1" id="Layer_1" xmlns="http://www.w3.org/2000/svg" xmlns:xlink="http://www.w3.org/1999/xlink" x="0px" y="0px"
	 viewBox="0 0 250 242" style="enable-background:new 0 0 250 242;" xml:space="preserve">
<style type="text/css">
	.st0{fill:#FFFFFF;}
	.st1{fill:#FFCCD3;}
	.st2{fill:#24040B;}
	.st3{fill:#39B464;}
	.st4{fill:#E55167;}
	.st5{fill:#DA364E;}
</style>
<g id="_x23_ffffffff">
	<path class="st0" d="M64.2,155.8c0.3-5.1,3.6-10.6,9-11.3c3.3-0.3,7.1-0.3,9.7,2.1c-4.9,0.8-10.2,1.8-13.8,5.6
		C67.5,153.4,66.4,155.6,64.2,155.8z"/>
</g>
<g id="_x23_ffccd3ff">
	<path class="st1" d="M111.4,12.3c17.9-1.8,36.1,0,53,6.3c37.9,13.6,66.7,49.4,71.8,89.4c3.3,23.1-0.6,47.2-11.2,68
		c-6.7,12.4-15.2,23.9-26,33.1c-18,16-41.5,25.6-65.4,27.4c-21.4,1.8-43.3-2.7-62.3-12.8c-20.1-10.3-36.5-27.2-47-47.1
		c-10.4-20.2-14.5-43.5-11.9-66.1C15,89.1,23.6,68.2,37.8,51.8c7.3-9.4,16.8-16.8,26.7-23.3C78.5,19.5,94.8,14.3,111.4,12.3
		 M131.6,45.3c-10.3,2.7-20.3,7-29,13.2c-4.6,4-9.7,7.7-13.1,12.9C81.9,81.8,77.3,94.3,76.2,107c-1.4,9.1-0.4,18.3-0.5,27.5
		c-5.1-0.1-10.2,1.6-13.8,5.2c-6.7,4.8-9.1,13.4-9.2,21.3c-0.7,17.5,9,35.6,25.2,43.1c5.1,2.1,10.8,2.9,16.3,3.1
		c9-1.2,18.4-4.5,24.3-11.7c2.2-2.6,3.3-5.9,5.7-8.3c2.7,1.8,4.2,5,6.6,7.2c7.1,6.6,16.4,11.6,26.3,11.5c10.5,0.5,21.1-3.9,28-11.8
		c7.9-7.8,10.8-19.2,10.6-30.1c0-9.1-0.5-18.9-6-26.6c-4-6.6-10.9-11.6-18.6-12.8c-8.8-0.5-16.9,4.6-22.7,10.8
		c-3.6,0.4-7.2-0.9-10.8-1c-5.9-9.6-11.1-20-12-31.4c-0.3-8.8-0.6-17.8,2.3-26.2c0.4-0.1,1.2-0.4,1.6-0.6
		c0.6,7.9,4.8,15.5,11.2,20.2c8.7,6.2,20,7.9,30.4,6.4c2.3-0.4,5.3,0.1,6.9-2c1.2-7.1-0.1-14.4-1.6-21.4
		c-2.8-7.9-8.1-15.5-16.2-18.6c-4.4-2.2-9.1-4-14.1-4.2c-2.2-0.2-4.6,0.3-6.8-0.6c1.3-2.9,3.8-4.8,6.3-6.5c0.3-2,0.7-4.8-1.6-5.8
		C139.7,42.5,135.6,44.3,131.6,45.3z"/>
	<path class="st1" d="M121,58c2.6-0.9,5-2.3,7.8-2.8c-3.5,7.2-7.6,14.3-9.7,22.1c-4.4,14.7-2.9,30.6,2.7,44.8
		c1.3,4.9,4.5,9.1,6.2,13.9c-1.3,1.6-3.2,2.5-5,3.4c-3.2-2-6-4.9-9.9-5.3c-7-1.6-14,1.2-20.2,4.2c-3.3,0.6-8.8-1-8.2-5.2
		c-0.3-10.9-0.7-22,1.1-32.8c2.6-9.8,6.6-19.5,13.8-26.9C105.6,67,112.6,61,121,58z"/>
	<path class="st1" d="M130.3,148.3c2.9-2.4,7.1-1.9,10.6-1.4l-0.2,0.8c-3.2,1.7-7,2.7-9.3,5.6c-1.5,1.5-2.3,3.8-4.4,4.6
		C126.2,154.5,127.4,150.5,130.3,148.3z"/>
</g>
<g id="_x23_24040bff">
	<path class="st2" d="M131.6,45.3c4-1,8.2-2.8,12.3-1.6c2.3,1,1.9,3.8,1.6,5.8c-2.5,1.7-5,3.6-6.3,6.5c2.1,0.9,4.5,0.4,6.8,0.6
		c5,0.2,9.7,1.9,14.1,4.2c8.1,3.1,13.4,10.7,16.2,18.6c1.5,7,2.8,14.3,1.6,21.4c-1.5,2.1-4.6,1.5-6.9,2c-10.4,1.6-21.7-0.2-30.4-6.4
		c-6.4-4.7-10.6-12.3-11.2-20.2c-0.4,0.1-1.2,0.4-1.6,0.6c-2.9,8.4-2.6,17.4-2.3,26.2c0.9,11.4,6,21.8,12,31.4
		c3.6,0.2,7.2,1.5,10.8,1c5.8-6.3,13.8-11.3,22.7-10.8c7.7,1.2,14.6,6.2,18.6,12.8c5.4,7.7,6,17.5,6,26.6
		c0.2,10.8-2.7,22.3-10.6,30.1c-6.9,7.9-17.5,12.3-28,11.8c-9.9,0.2-19.2-4.8-26.3-11.5c-2.4-2.2-3.8-5.4-6.6-7.2
		c-2.4,2.4-3.5,5.8-5.7,8.3c-5.9,7.2-15.3,10.5-24.3,11.7c-5.5-0.2-11.1-1-16.3-3.1c-16.2-7.5-25.8-25.5-25.2-43.1
		c0.2-7.8,2.6-16.5,9.2-21.3c3.7-3.6,8.8-5.3,13.8-5.2c0.1-9.2-0.9-18.4,0.5-27.5c1.1-12.8,5.7-25.2,13.3-35.5
		c3.3-5.2,8.4-8.9,13.1-12.9C111.2,52.3,121.2,48.1,131.6,45.3 M121,58c-8.4,3-15.4,9-21.5,15.4c-7.2,7.4-11.1,17.1-13.8,26.9
		c-1.8,10.8-1.4,21.9-1.1,32.8c-0.5,4.3,4.9,5.8,8.2,5.2c6.2-3,13.2-5.8,20.2-4.2c3.9,0.4,6.7,3.3,9.9,5.3c1.8-0.9,3.7-1.9,5-3.4
		c-1.7-4.8-4.9-8.9-6.2-13.9c-5.6-14.1-7.1-30.1-2.7-44.8c2.1-7.8,6.2-14.9,9.7-22.1C126,55.7,123.6,57.1,121,58 M145.2,63.3
		c0.7,2.5,3.1,3.9,4.8,5.7c3.8,3.2,6.8,7.3,8.2,12.1c0.5,2.3-2.9,4.4-4.6,2.4c-2.3-2.8-3.3-6.5-5.9-9.1c-3.4-3.5-7.1-7.2-11.7-9.1
		c-1.2,9.5,1.7,20.3,9.7,26.1c7.2,5.1,16.5,5.4,24.9,4.4c0.7-7-0.6-14.2-4.2-20.2C161.7,68.4,153.5,64.3,145.2,63.3 M160.8,134.9
		c-1.3,1.1-3.7,1.8-3.5,3.8c2.2,1.6,6.5,1.9,6.4,5.4c0.5,2.5-2.3,4.3-4.5,3.6c-6.7-1.9-13-5.9-20.2-5.4c-7.1-0.7-14.8,3.8-16.4,11.1
		c-1.1,8.7,0.8,17.9,5.8,25.2l0.7,0.2c0.5,4,4,6.7,6.5,9.6c7.7,9.1,21.1,12.2,32.4,8.5c5.8-2.7,11.4-6.6,14.7-12.2
		c5.9-9.4,6.7-21.2,4.6-31.8c-0.3-2.5-0.6-5.1-1.8-7.3c-2.2-3.9-4.1-8.5-8.2-10.8C172.6,131.1,165.6,131.5,160.8,134.9 M102.5,141.5
		c-1.3,0.6-3.4,0.8-3.6,2.4c1.4,2,4.8,3.1,4.5,6c0.2,2.4-3.1,4.2-5,2.6c-4.1-2.9-7.8-6.3-12.2-8.6c-5.7-2.5-13-3.9-18.5-0.2
		c-5.9,3.5-8.3,10.7-8.2,17.3c-0.1,6.5,0.4,13.8,4.4,19.1c0.2,1.1,0.5,2.1,0.9,3c4.6,8.4,12.8,15,22.4,16.5
		c13.7,3.3,27.9-6.7,32-19.6c-0.2-3.5-2.1-6.7-3.1-10c-0.6-5-2.2-9.9-1.5-15c0.3-3.5,1.8-6.6,2.9-9.8
		C114.4,140.2,107.7,139.8,102.5,141.5z"/>
</g>
<g id="_x23_39b464ff">
	<path class="st3" d="M145.2,63.3c8.3,1,16.5,5.1,21.3,12.2c3.6,6.1,4.8,13.3,4.2,20.2c-8.4,1-17.8,0.7-24.9-4.4
		c-8-5.8-10.9-16.6-9.7-26.1c4.6,2,8.3,5.6,11.7,9.1c2.6,2.6,3.6,6.3,5.9,9.1c1.6,2,5.1,0,4.6-2.4c-1.4-4.7-4.4-8.9-8.2-12.1
		C148.4,67.2,145.9,65.8,145.2,63.3z"/>
</g>
<g id="_x23_e55167ff">
	<path class="st4" d="M160.8,134.9c4.7-3.4,11.8-3.8,16.4-0.1c4.1,2.3,6,6.8,8.2,10.8c1.2,2.2,1.5,4.8,1.8,7.3c0,3,0.3,6-0.2,9
		c-1.9,3.4-5.4,5.5-8.3,7.9c-10.6,8-24.2,12.2-37.5,10.9c-4-0.6-8-1.6-12.1-1.8l-0.7-0.2c-5-7.3-6.9-16.5-5.8-25.2
		c1.6-7.2,9.3-11.8,16.4-11.1c7.2-0.5,13.5,3.4,20.2,5.4c2.2,0.7,5-1.1,4.5-3.6c0.1-3.5-4.2-3.9-6.4-5.4
		C157.1,136.6,159.6,135.9,160.8,134.9 M130.3,148.3c-2.9,2.1-4.1,6.2-3.4,9.6c2.1-0.8,2.9-3.1,4.4-4.6c2.3-3,6.1-4,9.3-5.6l0.2-0.8
		C137.4,146.5,133.2,145.9,130.3,148.3z"/>
	<path class="st4" d="M102.5,141.5c5.1-1.8,11.9-1.3,15.1,3.6c-1.1,3.2-2.6,6.4-2.9,9.8c-0.8,5.1,0.9,10,1.5,15
		c-2.5,3.4-6.4,5.3-10,7.4c-9.3,5.2-20.4,6.7-30.9,5.2c-3.8-0.6-7.6-1.6-11.4-2.4c-4-5.2-4.5-12.6-4.4-19.1
		c-0.1-6.5,2.3-13.8,8.2-17.3c5.5-3.7,12.8-2.3,18.5,0.2c4.4,2.4,8.1,5.8,12.2,8.6c1.9,1.6,5.2-0.2,5-2.6c0.3-2.9-3.1-4-4.5-6
		C99.2,142.3,101.3,142.1,102.5,141.5 M64.2,155.8c2.2-0.1,3.3-2.4,4.9-3.7c3.6-3.8,8.9-4.8,13.8-5.6c-2.6-2.4-6.4-2.4-9.7-2.1
		C67.8,145.2,64.5,150.7,64.2,155.8z"/>
</g>
<g id="_x23_da364eff">
	<path class="st5" d="M187.3,152.9c2.1,10.6,1.4,22.5-4.6,31.8c-3.3,5.7-8.9,9.5-14.7,12.2c-11.2,3.7-24.7,0.6-32.4-8.5
		c-2.5-2.9-6-5.6-6.5-9.6c4.1,0.3,8.1,1.2,12.1,1.8c13.3,1.4,26.9-2.9,37.5-10.9c3-2.4,6.4-4.5,8.3-7.9
		C187.6,158.9,187.3,155.8,187.3,152.9z"/>
	<path class="st5" d="M116.3,169.9c1.1,3.3,2.9,6.5,3.1,10c-4.1,13-18.3,22.9-32,19.6c-9.6-1.5-17.9-8.1-22.4-16.5
		c-0.5-1-0.8-2-0.9-3c3.8,0.8,7.6,1.8,11.4,2.4c10.5,1.5,21.6,0,30.9-5.2C109.9,175.2,113.8,173.4,116.3,169.9z"/>
</g>
</svg>
